src/pos-icons/layers-off-outline.svg

<svg height="24" viewBox="0 0 24 24" width="24" xmlns="http://www.w3.org/2000/svg"><path d="m12 4.53-1.17.91-1.42-1.44 2.59-2 9 7-3.72 2.89-1.43-1.42 1.89-1.47zm9 9.54-.87.68-1.43-1.43.67-.52zm-17.59-13.21 18.73 18.73-1.41 1.41-3.78-3.78-4.95 3.85-9-7 1.62-1.26 7.38 5.73 3.5-2.75-1.4-1.42-2.1 1.63-9-7 3.22-2.5-4.22-4.23zm8.59 12.61.67-.53-5.02-5.02-1.39 1.08z"/></svg>

<?xml version="1.0" encoding="UTF-8"?><!DOCTYPE svg PUBLIC "-//W3C//DTD SVG 1.1//EN" "http://www.w3.org/Graphics/SVG/1.1/DTD/svg11.dtd"><svg xmlns="http://www.w3.org/2000/svg" xmlns:xlink="http://www.w3.org/1999/xlink" version="1.1" id="mdi-layers-off-outline" width="24" height="24" viewBox="0 0 24 24"><path d="M12,4.53L10.83,5.44L9.41,4L12,2L21,9L17.28,11.89L15.85,10.47L17.74,9L12,4.53M21,14.07L20.13,14.75L18.7,13.32L19.37,12.8L21,14.07M3.41,0.86L22.14,19.59L20.73,21L16.95,17.22L12,21.07L3,14.07L4.62,12.81L12,18.54L15.5,15.79L14.1,14.37L12,16L3,9L6.22,6.5L2,2.27L3.41,0.86M12,13.47L12.67,12.94L7.65,7.92L6.26,9L12,13.47Z" /></svg>
